src/icons/svg/copy.svg

<svg t="1629103106092" class="icon" viewBox="0 0 1024 1024" version="1.1" xmlns="http://www.w3.org/2000/svg" p-id="7904" width="200" height="200"><path d="M779.636364 93.090909a128 128 0 0 1 127.906909 122.856727L907.636364 221.090909V768a128 128 0 0 1-122.856728 127.906909l-5.143272 0.093091-101.888 0.023273A92.928 92.928 0 0 1 605.090909 930.909091H209.454545a93.090909 93.090909 0 0 1-93.090909-93.090909V302.545455a93.090909 93.090909 0 0 1 93.090909-93.09091h105.239273a128 128 0 0 1 122.344727-116.270545L442.181818 93.090909h337.454546zM605.090909 279.272727H209.454545a23.272727 23.272727 0 0 0-23.109818 20.549818L186.181818 302.545455v535.272727a23.272727 23.272727 0 0 0 20.549818 23.109818L209.454545 861.090909h395.636364a23.272727 23.272727 0 0 0 23.109818-20.549818L628.363636 837.818182V302.545455a23.272727 23.272727 0 0 0-20.549818-23.109819L605.090909 279.272727z m174.545455-116.363636H442.181818a58.181818 58.181818 0 0 0-57.018182 46.545454H605.090909a93.090909 93.090909 0 0 1 93.090909 93.09091v523.636363h81.454546a58.181818 58.181818 0 0 0 58.065454-54.365091L837.818182 768V221.090909a58.181818 58.181818 0 0 0-54.365091-58.065454L779.636364 162.909091z m-232.727273 512a34.909091 34.909091 0 0 1 0 69.818182h-279.272727a34.909091 34.909091 0 0 1 0-69.818182h279.272727z m0-139.636364a34.909091 34.909091 0 0 1 0 69.818182h-279.272727a34.909091 34.909091 0 0 1 0-69.818182h279.272727z m0-139.636363a34.909091 34.909091 0 0 1 0 69.818181h-279.272727a34.909091 34.909091 0 0 1 0-69.818181h279.272727z" p-id="7905"></path></svg>

<svg viewBox="0 0 1024 1024" width="200" height="200"><path d="M779.636 93.09a128 128 0 01127.907 122.858l.093 5.143V768A128 128 0 01784.78 895.907l-5.144.093-101.888.023a92.928 92.928 0 01-72.657 34.886H209.455a93.09 93.09 0 01-93.091-93.09V302.544a93.09 93.09 0 0193.09-93.09h105.24a128 128 0 01122.345-116.27l5.143-.093h337.454zM605.091 279.274H209.455a23.273 23.273 0 00-23.11 20.55l-.163 2.722v535.273a23.273 23.273 0 0020.55 23.11l2.723.163H605.09a23.273 23.273 0 0023.11-20.55l.163-2.723V302.545a23.273 23.273 0 00-20.55-23.11l-2.723-.162zM779.636 162.91H442.182a58.182 58.182 0 00-57.018 46.546H605.09a93.09 93.09 0 0193.09 93.09v523.637h81.455a58.182 58.182 0 0058.066-54.365l.116-3.817V221.09a58.182 58.182 0 00-54.365-58.065l-3.817-.116zm-232.727 512a34.91 34.91 0 010 69.818H267.636a34.91 34.91 0 010-69.818H546.91zm0-139.636a34.91 34.91 0 010 69.818H267.636a34.91 34.91 0 010-69.818H546.91zm0-139.637a34.91 34.91 0 010 69.819H267.636a34.91 34.91 0 010-69.819H546.91z"/></svg>
